;FLAVOR:Marlin
;TIME:2040
;Filament used: 0.819046m
;Layer height: 0.1
;MINX:40.2
;MINY:40.347
;MINZ:0.3
;MAXX:69.8
;MAXY:69.653
;MAXZ:16
;Generated with Cura_SteamEngine 4.6.2
M104 S200
M105
M109 S200
M82 ;absolute extrusion mode
G28 ;Home
G1 Z15.0 F6000 ;Move the platform down 15mm
;Prime the extruder
G92 E0
G1 F200 E3
G92 E0
G92 E0
G92 E0
G1 F1500 E-6.5
;LAYER_COUNT:158
;LAYER:0
M107
;MESH:lampHook.stl
G0 F3600 X69.4 Y43.095 Z0.3
;TYPE:WALL-INNER
G1 F1500 E0
G1 X69.4 Y66.907 E1.18799
G1 X68.917 Y68.391 E1.26585
G1 X67.731 Y69.253 E1.33899
G1 X42.269 Y69.253 E2.6093
G1 X41.082 Y68.391 E2.68248
G1 X40.6 Y66.905 E2.76042
G1 X40.6 Y43.093 E3.94841
G1 X41.083 Y41.609 E4.02627
G1 X42.269 Y40.747 E4.09942
G1 X67.731 Y40.747 E5.36972
G1 X68.918 Y41.609 E5.44291
G1 X69.4 Y43.095 E5.52085
G0 F3600 X69.8 Y43.034
;TYPE:WALL-OUTER
G1 F1500 X69.8 Y66.969 E6.71497
G1 X69.257 Y68.639 E6.80258
G1 X67.861 Y69.653 E6.88866
G1 X42.139 Y69.653 E8.17194
G1 X40.743 Y68.639 E8.25802
G1 X40.2 Y66.966 E8.34577
G1 X40.2 Y43.031 E9.53989
G1 X40.743 Y41.361 E9.6275
G1 X42.139 Y40.347 E9.71358
G1 X67.861 Y40.347 E10.99686
G1 X69.257 Y41.361 E11.08294
G1 X69.8 Y43.034 E11.17069
G0 F3600 X69.8 Y43.234
G0 X69.01 Y43.157
;TYPE:SKIN
G1 F1500 X69.01 Y66.845 E12.35249
G1 X68.585 Y68.149 E12.42092
G1 X67.603 Y68.863 E12.48149
G1 X42.397 Y68.863 E13.73902
G1 X41.414 Y68.149 E13.79964
G1 X40.99 Y66.843 E13.86814
G1 X40.99 Y43.155 E15.04994
G1 X41.415 Y41.851 E15.11836
G1 X42.397 Y41.137 E15.17894
G1 X67.603 Y41.137 E16.43647
G1 X68.586 Y41.851 E16.49708
G1 X69.01 Y43.157 E16.56559
G0 F3600 X68.648 Y42.626
G1 F1500 X67.338 Y41.316 E16.65802
G0 F3600 X66.772 Y41.316
G1 F1500 X68.829 Y43.373 E16.80315
G0 F3600 X68.829 Y43.938
G1 F1500 X66.207 Y41.316 E16.98814
G0 F3600 X65.641 Y41.316
G1 F1500 X68.829 Y44.504 E17.21307
G0 F3600 X68.829 Y45.07
G1 F1500 X65.075 Y41.316 E17.47794
G0 F3600 X64.51 Y41.316
G1 F1500 X68.829 Y45.635 E17.78267
G0 F3600 X68.829 Y46.201
G1 F1500 X63.944 Y41.316 E18.12733
G0 F3600 X63.378 Y41.316
G1 F1500 X68.829 Y46.767 E18.51193
G0 F3600 X68.829 Y47.333
G1 F1500 X62.813 Y41.316 E18.93643
G0 F3600 X62.247 Y41.316
G1 F1500 X68.829 Y47.898 E19.40082
G0 F3600 X68.829 Y48.464
G1 F1500 X61.681 Y41.316 E19.90515
G0 F3600 X61.115 Y41.316
G1 F1500 X68.829 Y49.03 E20.44942
G0 F3600 X68.829 Y49.595
G1 F1500 X60.55 Y41.316 E21.03354
G0 F3600 X59.984 Y41.316
G1 F1500 X68.829 Y50.161 E21.65761
G0 F3600 X68.829 Y50.727
G1 F1500 X59.418 Y41.316 E22.3216
G0 F3600 X58.853 Y41.316
G1 F1500 X68.829 Y51.292 E23.02546
G0 F3600 X68.829 Y51.858
G1 F1500 X58.287 Y41.316 E23.76926
G0 F3600 X57.721 Y41.316
G1 F1500 X68.829 Y52.424 E24.55299
G0 F3600 X68.829 Y52.989
G1 F1500 X57.156 Y41.316 E25.37658
G0 F3600 X56.59 Y41.316
G1 F1500 X68.829 Y53.555 E26.24011
G0 F3600 X68.829 Y54.121
G1 F1500 X56.024 Y41.316 E27.14357
G0 F3600 X55.459 Y41.316
G1 F1500 X68.829 Y54.686 E28.0869
G0 F3600 X68.829 Y55.252
G1 F1500 X54.893 Y41.316 E29.07016
G0 F3600 X54.327 Y41.316
G1 F1500 X68.829 Y55.818 E30.09335
G0 F3600 X68.829 Y56.383
G1 F1500 X53.762 Y41.316 E31.15641
G0 F3600 X53.196 Y41.316
G1 F1500 X68.829 Y56.949 E32.2594
G0 F3600 X68.829 Y57.515
G1 F1500 X52.63 Y41.316 E33.40233
G0 F3600 X52.064 Y41.316
G1 F1500 X68.829 Y58.081 E34.58519
G0 F3600 X68.829 Y58.646
G1 F1500 X51.499 Y41.316 E35.80792
G0 F3600 X50.933 Y41.316
G1 F1500 X68.829 Y59.212 E37.07057
G0 F3600 X68.829 Y59.778
G1 F1500 X50.367 Y41.316 E38.37317
G0 F3600 X49.802 Y41.316
G1 F1500 X68.829 Y60.343 E39.71563
G0 F3600 X68.829 Y60.909
G1 F1500 X49.236 Y41.316 E41.09802
G0 F3600 X48.67 Y41.316
G1 F1500 X68.829 Y61.475 E42.52034
G0 F3600 X68.829 Y62.04
G1 F1500 X48.105 Y41.316 E43.98253
G0 F3600 X47.539 Y41.316
G1 F1500 X68.829 Y62.606 E45.48466
G0 F3600 X68.829 Y63.172
G1 F1500 X46.973 Y41.316 E47.02672
G0 F3600 X46.408 Y41.316
G1 F1500 X68.829 Y63.737 E48.60864
G0 F3600 X68.829 Y64.303
G1 F1500 X45.842 Y41.316 E50.2305
G0 F3600 X45.276 Y41.316
G1 F1500 X68.829 Y64.869 E51.89229
G0 F3600 X68.829 Y65.434
G1 F1500 X44.711 Y41.316 E53.59394
G0 F3600 X44.145 Y41.316
G1 F1500 X68.829 Y66 E55.33553
G0 F3600 X68.829 Y66.566
G1 F1500 X43.579 Y41.316 E57.11706
G0 F3600 X43.014 Y41.316
G1 F1500 X68.751 Y67.054 E58.93298
G0 F3600 X68.612 Y67.481
G1 F1500 X42.452 Y41.321 E60.77871
G0 F3600 X42.124 Y41.558
G1 F1500 X68.474 Y67.908 E62.63784
G0 F3600 X68.202 Y68.202
G1 F1500 X41.797 Y41.797 E64.50086
G0 F3600 X41.525 Y42.091
G1 F1500 X67.875 Y68.44 E66.35996
G0 F3600 X67.547 Y68.678
G1 F1500 X41.386 Y42.517 E68.20576
G0 F3600 X41.246 Y42.944
G1 F1500 X66.984 Y68.681 E70.02168
G0 F3600 X66.419 Y68.681
G1 F1500 X41.169 Y43.432 E71.80316
G0 F3600 X41.169 Y43.998
G1 F1500 X65.853 Y68.681 E73.54472
G0 F3600 X65.287 Y68.681
G1 F1500 X41.169 Y44.563 E75.24637
G0 F3600 X41.169 Y45.129
G1 F1500 X64.722 Y68.681 E76.90813
G0 F3600 X64.156 Y68.681
G1 F1500 X41.169 Y45.695 E78.52995
G0 F3600 X41.169 Y46.261
G1 F1500 X63.59 Y68.681 E80.11184
G0 F3600 X63.025 Y68.681
G1 F1500 X41.169 Y46.826 E81.65386
G0 F3600 X41.169 Y47.392
G1 F1500 X62.459 Y68.681 E83.15595
G0 F3600 X61.893 Y68.681
G1 F1500 X41.169 Y47.958 E84.61811
G0 F3600 X41.169 Y48.523
G1 F1500 X61.328 Y68.681 E86.0404
G0 F3600 X60.762 Y68.681
G1 F1500 X41.169 Y49.089 E87.42275
G0 F3600 X41.169 Y49.655
G1 F1500 X60.196 Y68.681 E88.76518
G0 F3600 X59.631 Y68.681
G1 F1500 X41.169 Y50.22 E90.06773
G0 F3600 X41.169 Y50.786
G1 F1500 X59.065 Y68.681 E91.33036
G0 F3600 X58.499 Y68.681
G1 F1500 X41.169 Y51.352 E92.55305
G0 F3600 X41.169 Y51.917
G1 F1500 X57.933 Y68.681 E93.73584
G0 F3600 X57.368 Y68.681
G1 F1500 X41.169 Y52.483 E94.87873
G0 F3600 X41.169 Y53.049
G1 F1500 X56.802 Y68.681 E95.98169
G0 F3600 X56.236 Y68.681
G1 F1500 X41.169 Y53.614 E97.04475
G0 F3600 X41.169 Y54.18
G1 F1500 X55.671 Y68.681 E98.06791
G0 F3600 X55.105 Y68.681
G1 F1500 X41.169 Y54.746 E99.05113
G0 F3600 X41.169 Y55.312
G1 F1500 X54.539 Y68.681 E99.99442
G0 F3600 X53.974 Y68.681
G1 F1500 X41.169 Y55.877 E100.89785
G0 F3600 X41.169 Y56.443
G1 F1500 X53.408 Y68.681 E101.76134
G0 F3600 X52.842 Y68.681
G1 F1500 X41.169 Y57.009 E102.5849
G0 F3600 X41.169 Y57.574
G1 F1500 X52.277 Y68.681 E103.36859
G0 F3600 X51.711 Y68.681
G1 F1500 X41.169 Y58.14 E104.11235
G0 F3600 X41.169 Y58.706
G1 F1500 X51.145 Y68.681 E104.81618
G0 F3600 X50.58 Y68.681
G1 F1500 X41.169 Y59.271 E105.48014
G0 F3600 X41.169 Y59.837
G1 F1500 X50.014 Y68.681 E106.10417
G0 F3600 X49.448 Y68.681
G1 F1500 X41.169 Y60.403 E106.68826
G0 F3600 X41.169 Y60.968
G1 F1500 X48.882 Y68.681 E107.23245
G0 F3600 X48.317 Y68.681
G1 F1500 X41.169 Y61.534 E107.73675
G0 F3600 X41.169 Y62.1
G1 F1500 X47.751 Y68.681 E108.20111
G0 F3600 X47.185 Y68.681
G1 F1500 X41.169 Y62.665 E108.62557
G0 F3600 X41.169 Y63.231
G1 F1500 X46.62 Y68.681 E109.01013
G0 F3600 X46.054 Y68.681
G1 F1500 X41.169 Y63.797 E109.35476
G0 F3600 X41.169 Y64.362
G1 F1500 X45.488 Y68.681 E109.65949
G0 F3600 X44.923 Y68.681
G1 F1500 X41.169 Y64.928 E109.92432
G0 F3600 X41.169 Y65.494
G1 F1500 X44.357 Y68.681 E110.14921
G0 F3600 X43.791 Y68.681
G1 F1500 X41.169 Y66.06 E110.33417
G0 F3600 X41.169 Y66.625
G1 F1500 X43.226 Y68.681 E110.47927
G0 F3600 X42.66 Y68.681
G1 F1500 X41.35 Y67.372 E110.57166
G1 X41.28 Y67.302
;MESH:NONMESH
G0 F600 X41.28 Y67.302 Z0.4
G0 F3600 X69.304 Y43.124
G0 X69.4 Y43.094
;TIME_ELAPSED:94.338686
;LAYER:1
M106 S255
;TYPE:WALL-INNER
;MESH:lampHook.stl
G1 F2250 X69.4 Y66.907 E110.96768
G1 X68.918 Y68.39 E110.99361
G1 X67.731 Y69.253 E111.01801
G1 X42.269 Y69.253 E111.44145
G1 X41.083 Y68.391 E111.46583
G1 X40.6 Y66.906 E111.4918
G1 X40.6 Y43.093 E111.88781
G1 X41.082 Y41.61 E111.91374
G1 X42.269 Y40.747 E111.93815
G1 X67.731 Y40.747 E112.36158
G1 X68.917 Y41.609 E112.38597
G1 X69.4 Y43.094 E112.41194
G0 F5400 X69.8 Y43.032
;TYPE:WALL-OUTER
G1 F1500 X69.8 Y66.969 E112.81001
G1 X69.258 Y68.638 E112.83919
G1 X67.861 Y69.653 E112.86791
G1 X42.139 Y69.653 E113.29567
G1 X40.743 Y68.639 E113.32436
G1 X40.2 Y66.968 E113.35358
G1 X40.2 Y43.031 E113.75165
G1 X40.742 Y41.362 E113.78084
G1 X42.139 Y40.347 E113.80955
G1 X67.861 Y40.347 E114.23731
G1 X69.257 Y41.361 E114.26601
G1 X69.8 Y43.032 E114.29522
G0 F5400 X69.8 Y43.232
G0 X69.01 Y43.156
;TYPE:SKIN
G1 F1500 X69.01 Y66.845 E114.68917
G1 X68.586 Y68.148 E114.71196
G1 X67.603 Y68.863 E114.73218
G1 X42.397 Y68.863 E115.15135
G1 X41.415 Y68.149 E115.17154
G1 X40.99 Y66.844 E115.19437
G1 X40.99 Y43.155 E115.58832
G1 X41.414 Y41.852 E115.61111
G1 X42.397 Y41.137 E115.63132
G1 X67.603 Y41.137 E116.0505
G1 X68.585 Y41.851 E116.07069
G1 X69.01 Y43.156 E116.09351
G0 F5400 X68.498 Y67.831
G1 F1500 X67.923 Y68.406 E116.10704
G1 X67.853 Y68.476
G0 F5400 X67.081 Y68.682
G1 F1500 X68.771 Y66.992 E116.14678
G0 F5400 X68.829 Y66.369
G1 F1500 X66.516 Y68.682 E116.20118
G0 F5400 X65.95 Y68.682
G1 F1500 X68.829 Y65.804 E116.26888
G0 F5400 X68.829 Y65.238
G1 F1500 X65.384 Y68.682 E116.34989
G0 F5400 X64.819 Y68.682
G1 F1500 X68.829 Y64.672 E116.4442
G0 F5400 X68.829 Y64.107
G1 F1500 X64.253 Y68.682 E116.55181
G0 F5400 X63.687 Y68.682
G1 F1500 X68.829 Y63.541 E116.67273
G0 F5400 X68.829 Y62.975
G1 F1500 X63.122 Y68.682 E116.80695
G0 F5400 X62.556 Y68.682
G1 F1500 X68.829 Y62.409 E116.95448
G0 F5400 X68.829 Y61.844
G1 F1500 X61.99 Y68.682 E117.11531
G0 F5400 X61.424 Y68.682
G1 F1500 X68.829 Y61.278 E117.28945
G0 F5400 X68.829 Y60.712
G1 F1500 X60.859 Y68.682 E117.47689
G0 F5400 X60.293 Y68.682
G1 F1500 X68.829 Y60.147 E117.67763
G0 F5400 X68.829 Y59.581
G1 F1500 X59.727 Y68.682 E117.89169
G0 F5400 X59.162 Y68.682
G1 F1500 X68.829 Y59.015 E118.11904
G0 F5400 X68.829 Y58.45
G1 F1500 X58.596 Y68.682 E118.35969
G0 F5400 X58.03 Y68.682
G1 F1500 X68.829 Y57.884 E118.61366
G0 F5400 X68.829 Y57.318
G1 F1500 X57.465 Y68.682 E118.88092
G0 F5400 X56.899 Y68.682
G1 F1500 X68.829 Y56.753 E119.16149
G0 F5400 X68.829 Y56.187
G1 F1500 X56.333 Y68.682 E119.45536
G0 F5400 X55.768 Y68.682
G1 F1500 X68.829 Y55.621 E119.76253
G0 F5400 X68.829 Y55.056
G1 F1500 X55.202 Y68.682 E120.08301
G0 F5400 X54.636 Y68.682
G1 F1500 X68.829 Y54.49 E120.4168
G0 F5400 X68.829 Y53.924
G1 F1500 X54.071 Y68.682 E120.76388
G0 F5400 X53.505 Y68.682
G1 F1500 X68.829 Y53.358 E121.12428
G0 F5400 X68.829 Y52.793
G1 F1500 X52.939 Y68.682 E121.49797
G0 F5400 X52.373 Y68.682
G1 F1500 X68.829 Y52.227 E121.88498
G0 F5400 X68.829 Y51.661
G1 F1500 X51.808 Y68.682 E122.28529
G0 F5400 X51.242 Y68.682
G1 F1500 X68.829 Y51.096 E122.6989
G0 F5400 X68.829 Y50.53
G1 F1500 X50.676 Y68.682 E123.12582
G0 F5400 X50.111 Y68.682
G1 F1500 X68.829 Y49.964 E123.56604
G0 F5400 X68.829 Y49.399
G1 F1500 X49.545 Y68.682 E124.01955
G0 F5400 X48.979 Y68.682
G1 F1500 X68.829 Y48.833 E124.48638
G0 F5400 X68.829 Y48.267
G1 F1500 X48.414 Y68.682 E124.96651
G0 F5400 X47.848 Y68.682
G1 F1500 X68.829 Y47.702 E125.45994
G0 F5400 X68.829 Y47.136
G1 F1500 X47.282 Y68.682 E125.96668
G0 F5400 X46.717 Y68.682
G1 F1500 X68.829 Y46.57 E126.48672
G0 F5400 X68.829 Y46.005
G1 F1500 X46.151 Y68.682 E127.02006
G0 F5400 X45.585 Y68.682
G1 F1500 X68.829 Y45.439 E127.56671
G0 F5400 X68.829 Y44.873
G1 F1500 X45.02 Y68.682 E128.12667
G0 F5400 X44.454 Y68.682
G1 F1500 X68.829 Y44.308 E128.69992
G0 F5400 X68.829 Y43.742
G1 F1500 X43.888 Y68.682 E129.28648
G0 F5400 X43.323 Y68.682
G1 F1500 X68.826 Y43.178 E129.88628
G0 F5400 X68.688 Y42.751
G1 F1500 X42.757 Y68.682 E130.49614
G0 F5400 X42.303 Y68.57
G1 F1500 X68.549 Y42.325 E131.11339
G0 F5400 X68.382 Y41.926
G1 F1500 X41.975 Y68.333 E131.73445
G0 F5400 X41.647 Y68.095
G1 F1500 X68.054 Y41.688 E132.3555
G0 F5400 X67.726 Y41.45
G1 F1500 X41.463 Y67.713 E132.97316
G0 F5400 X41.324 Y67.287
G1 F1500 X67.294 Y41.316 E133.58395
G0 F5400 X66.728 Y41.316
G1 F1500 X41.185 Y66.86 E134.18469
G0 F5400 X41.169 Y66.31
G1 F1500 X66.163 Y41.316 E134.77251
G0 F5400 X65.597 Y41.316
G1 F1500 X41.169 Y65.744 E135.34702
G0 F5400 X41.169 Y65.178
G1 F1500 X65.031 Y41.316 E135.90822
G0 F5400 X64.466 Y41.316
G1 F1500 X41.169 Y64.613 E136.45613
G0 F5400 X41.169 Y64.047
G1 F1500 X63.9 Y41.316 E136.99073
G0 F5400 X63.334 Y41.316
G1 F1500 X41.169 Y63.481 E137.51202
G0 F5400 X41.169 Y62.916
G1 F1500 X62.769 Y41.316 E138.02001
G0 F5400 X62.203 Y41.316
G1 F1500 X41.169 Y62.35 E138.5147
G0 F5400 X41.169 Y61.784
G1 F1500 X61.637 Y41.316 E138.99608
G0 F5400 X61.072 Y41.316
G1 F1500 X41.169 Y61.219 E139.46417
G0 F5400 X41.169 Y60.653
G1 F1500 X60.506 Y41.316 E139.91894
G0 F5400 X59.94 Y41.316
G1 F1500 X41.169 Y60.087 E140.36041
G0 F5400 X41.169 Y59.522
G1 F1500 X59.375 Y41.316 E140.78859
G0 F5400 X58.809 Y41.316
G1 F1500 X41.169 Y58.956 E141.20345
G0 F5400 X41.169 Y58.39
G1 F1500 X58.243 Y41.316 E141.60501
G0 F5400 X57.677 Y41.316
G1 F1500 X41.169 Y57.825 E141.99326
G0 F5400 X41.169 Y57.259
G1 F1500 X57.112 Y41.316 E142.36822
G0 F5400 X56.546 Y41.316
G1 F1500 X41.169 Y56.693 E142.72986
G0 F5400 X41.169 Y56.128
G1 F1500 X55.98 Y41.316 E143.0782
G0 F5400 X55.415 Y41.316
G1 F1500 X41.169 Y55.562 E143.41325
G0 F5400 X41.169 Y54.996
G1 F1500 X54.849 Y41.316 E143.73498
G0 F5400 X54.283 Y41.316
G1 F1500 X41.169 Y54.43 E144.0434
G0 F5400 X41.169 Y53.865
G1 F1500 X53.718 Y41.316 E144.33853
G0 F5400 X53.152 Y41.316
G1 F1500 X41.169 Y53.299 E144.62036
G0 F5400 X41.169 Y52.733
G1 F1500 X52.586 Y41.316 E144.88887
G0 F5400 X52.021 Y41.316
G1 F1500 X41.169 Y52.168 E145.14409
G0 F5400 X41.169 Y51.602
G1 F1500 X51.455 Y41.316 E145.386
G0 F5400 X50.889 Y41.316
G1 F1500 X41.169 Y51.036 E145.6146
G0 F5400 X41.169 Y50.471
G1 F1500 X50.324 Y41.316 E145.82991
G0 F5400 X49.758 Y41.316
G1 F1500 X41.169 Y49.905 E146.03191
G0 F5400 X41.169 Y49.339
G1 F1500 X49.192 Y41.316 E146.2206
G0 F5400 X48.627 Y41.316
G1 F1500 X41.169 Y48.774 E146.396
G0 F5400 X41.169 Y48.208
G1 F1500 X48.061 Y41.316 E146.55809
G0 F5400 X47.495 Y41.316
G1 F1500 X41.169 Y47.642 E146.70687
G0 F5400 X41.169 Y47.077
G1 F1500 X46.929 Y41.316 E146.84234
G0 F5400 X46.364 Y41.316
G1 F1500 X41.169 Y46.511 E146.96452
G0 F5400 X41.169 Y45.945
G1 F1500 X45.798 Y41.316 E147.07339
G0 F5400 X45.232 Y41.316
G1 F1500 X41.169 Y45.379 E147.16895
G0 F5400 X41.169 Y44.814
G1 F1500 X44.667 Y41.316 E147.25121
G0 F5400 X44.101 Y41.316
G1 F1500 X41.169 Y44.248 E147.32017
G0 F5400 X41.169 Y43.682
G1 F1500 X43.535 Y41.316 E147.37581
G0 F5400 X42.97 Y41.316
G1 F1500 X41.201 Y43.085 E147.41742
G1 X41.131 Y43.155
G0 F5400 X41.475 Y42.246
G1 F1500 X42.268 Y41.452 E147.43608
G1 X42.338 Y41.382
;MESH:NONMESH
G0 F600 X42.338 Y41.382 Z0.5
G0 F5400 X69.302 Y43.109
G0 X69.4 Y43.094
;TIME_ELAPSED:184.164203
;LAYER:2
;TYPE:WALL-INNER
;MESH:lampHook.stl
G1 F3000 X69.4 Y66.907 E147.83209
G1 X68.918 Y68.39 E147.85802
G1 X67.731 Y69.253 E147.88243
G1 X42.269 Y69.253 E148.30586
G1 X41.083 Y68.391 E148.33025
G1 X40.6 Y66.906 E148.35622
G1 X40.6 Y43.093 E148.75223
G1 X41.082 Y41.61 E148.77816
G1 X42.269 Y40.747 E148.80257
G1 X67.731 Y40.747 E149.226
G1 X68.917 Y41.609 E149.25038
G1 X69.4 Y43.094 E149.27635
G0 F7200 X69.8 Y43.032
;TYPE:WALL-OUTER
G1 F1500 X69.8 Y66.969 E149.67443
G1 X69.258 Y68.638 E149.70361
G1 X67.861 Y69.653 E149.73233
G1 X42.139 Y69.653 E150.16008
G1 X40.743 Y68.639 E150.18878
G1 X40.2 Y66.968 E150.218
G1 X40.2 Y43.031 E150.61607
G1 X40.742 Y41.362 E150.64525
G1 X42.139 Y40.347 E150.67397
G1 X67.861 Y40.347 E151.10173
G1 X69.257 Y41.361 E151.13042
G1 X69.8 Y43.032 E151.15964
G0 F7200 X69.8 Y43.232
G0 X69.01 Y43.156
;TYPE:SKIN
G1 F1500 X69.01 Y66.845 E151.55359
G1 X68.586 Y68.148 E151.57638
G1 X67.603 Y68.863 E151.59659
G1 X42.397 Y68.863 E152.01577
G1 X41.415 Y68.149 E152.03596
G1 X40.99 Y66.844 E152.05879
G1 X40.99 Y43.155 E152.45274
G1 X41.414 Y41.852 E152.47552
G1 X42.397 Y41.137 E152.49574
G1 X67.603 Y41.137 E152.91491
G1 X68.585 Y41.851 E152.93511
G1 X69.01 Y43.156 E152.95793
G0 F7200 X68.648 Y42.626
G1 F1500 X67.338 Y41.316 E152.98874
G0 F7200 X66.772 Y41.316
G1 F1500 X68.829 Y43.373 E153.03712
G0 F7200 X68.829 Y43.938
G1 F1500 X66.207 Y41.316 E153.09878
G0 F7200 X65.641 Y41.316
G1 F1500 X68.829 Y44.504 E153.17376
G0 F7200 X68.829 Y45.07
G1 F1500 X65.075 Y41.316 E153.26205
G0 F7200 X64.51 Y41.316
G1 F1500 X68.829 Y45.635 E153.36362
G0 F7200 X68.829 Y46.201
G1 F1500 X63.944 Y41.316 E153.47851
